X: 764
T: Riben qiangdao zhen keheng
L: 1/16
M: 2/4
K: F
c2 c c A2 c2 [I:setbarnb 1]| 
f2 f d c2 A2 | 
d2 d f c2 A2 | 
G A G FG4 | 
G2 G A f2 f d | 
A c A G2< F2 G | 
A2 A A c A G F | 
D2> C2D4 |]

@@@ Tune index: 9638
